icons/circle/48/gnormalize.svg

<svg xmlns="http://www.w3.org/2000/svg" viewBox="0 0 48 48">
 <path d="m 36.31,5 c 5.859,4.062 9.688,10.831 9.688,18.5 0,12.426 -10.07,22.5 -22.5,22.5 -7.669,0 -14.438,-3.828 -18.5,-9.688 1.037,1.822 2.306,3.499 3.781,4.969 4.085,3.712 9.514,5.969 15.469,5.969 12.703,0 23,-10.298 23,-23 0,-5.954 -2.256,-11.384 -5.969,-15.469 C 39.81,7.306 38.132,6.037 36.31,5 z m 4.969,3.781 c 3.854,4.113 6.219,9.637 6.219,15.719 0,12.703 -10.297,23 -23,23 -6.081,0 -11.606,-2.364 -15.719,-6.219 4.16,4.144 9.883,6.719 16.219,6.719 12.703,0 23,-10.298 23,-23 0,-6.335 -2.575,-12.06 -6.719,-16.219 z" style="opacity:0.05"/>
 <path d="m 41.28 8.781 c 3.712 4.085 5.969 9.514 5.969 15.469 0 12.703 -10.297 23 -23 23 -5.954 0 -11.384 -2.256 -15.469 -5.969 4.113 3.854 9.637 6.219 15.719 6.219 12.703 0 23 -10.298 23 -23 0 -6.081 -2.364 -11.606 -6.219 -15.719 z" style="opacity:0.1"/>
 <path d="M 31.25,2.375 C 39.865,5.529 46,13.792 46,23.505 c 0,12.426 -10.07,22.5 -22.5,22.5 -9.708,0 -17.971,-6.135 -21.12,-14.75 a 23,23 0 0 0 44.875,-7 23,23 0 0 0 -16,-21.875 z" style="opacity:0.2"/>
 <path d="m 21 1.188 c -11.282 1.473 -20 11.129 -20 22.813 c 0 0.676 0.037 1.339 0.094 2 l 19.906 0 l 0 -24.813 z" style="fill:#318631;fill-opacity:1;stroke:none;fill-rule:evenodd"/>
 <path d="m 24 1 c -1.019 0 -2.02 0.059 -3 0.188 l 0 24.813 l 25.906 0 c 0.057 -0.661 0.094 -1.324 0.094 -2 c 0 -12.703 -10.297 -23 -23 -23 z" style="fill:#fbb909;fill-opacity:1;stroke:none;fill-rule:evenodd"/>
 <path d="m 21 26 l 0 20.813 c 0.984 0.128 1.981 0.188 3 0.188 c 12.03 0 21.89 -9.237 22.906 -21 l -25.906 0 z" style="fill:#318631;fill-opacity:1;stroke:none;fill-rule:evenodd"/>
 <path d="m 1.094 26 c 0.93 10.767 9.277 19.425 19.906 20.813 l 0 -20.813 l -19.906 0 z" style="fill:#1a3d9b;fill-opacity:1;stroke:none;fill-rule:evenodd"/>
 <path d="m 40.03,7.531 c 3.712,4.084 5.969,9.514 5.969,15.469 0,12.703 -10.297,23 -23,23 C 17.045,46 11.615,43.744 7.53,40.031 11.708,44.322 17.54,47 23.999,47 c 12.703,0 23,-10.298 23,-23 0,-6.462 -2.677,-12.291 -6.969,-16.469 z" style="opacity:0.1"/>
</svg>

<svg xmlns="http://www.w3.org/2000/svg" viewBox="0 0 48 48">
  <path d="M36.31 5c5.859 4.062 9.688 10.831 9.688 18.5 0 12.426-10.07 22.5-22.5 22.5-7.669 0-14.438-3.828-18.5-9.688a23.24 23.24 0 0 0 3.781 4.969 22.923 22.923 0 0 0 15.469 5.969c12.703 0 23-10.298 23-23a22.92 22.92 0 0 0-5.969-15.469A23.216 23.216 0 0 0 36.31 5zm4.969 3.781A22.911 22.911 0 0 1 47.498 24.5c0 12.703-10.297 23-23 23a22.909 22.909 0 0 1-15.719-6.219C12.939 45.425 18.662 48 24.998 48c12.703 0 23-10.298 23-23 0-6.335-2.575-12.06-6.719-16.219z" opacity=".05"/>
  <path d="M41.28 8.781a22.923 22.923 0 0 1 5.969 15.469c0 12.703-10.297 23-23 23A22.92 22.92 0 0 1 8.78 41.281 22.911 22.911 0 0 0 24.499 47.5c12.703 0 23-10.298 23-23A22.909 22.909 0 0 0 41.28 8.781z" opacity=".1"/>
  <path d="M31.25 2.375C39.865 5.529 46 13.792 46 23.505c0 12.426-10.07 22.5-22.5 22.5-9.708 0-17.971-6.135-21.12-14.75a23 23 0 0 0 44.875-7 23 23 0 0 0-16-21.875z" opacity=".2"/>
  <path d="M21 1.188C9.718 2.661 1 12.317 1 24.001c0 .676.037 1.339.094 2H21V1.188z" fill="#318631" fill-rule="evenodd"/>
  <path d="M24 1c-1.019 0-2.02.059-3 .188v24.813h25.906c.057-.661.094-1.324.094-2 0-12.703-10.297-23-23-23z" fill="#fbb909" fill-rule="evenodd"/>
  <path d="M21 26v20.813c.984.128 1.981.188 3 .188 12.03 0 21.89-9.237 22.906-21H21z" fill="#318631" fill-rule="evenodd"/>
  <path d="M1.094 26C2.024 36.767 10.371 45.425 21 46.813V26H1.094z" fill="#1a3d9b" fill-rule="evenodd"/>
  <path d="M40.03 7.531A22.922 22.922 0 0 1 45.999 23c0 12.703-10.297 23-23 23A22.92 22.92 0 0 1 7.53 40.031C11.708 44.322 17.54 47 23.999 47c12.703 0 23-10.298 23-23 0-6.462-2.677-12.291-6.969-16.469z" opacity=".1"/>
</svg>
